polaris-icons/icons/new-icons/TextMajor.svg

<svg width="20" height="20" viewBox="0 0 20 20" fill="none" xmlns="http://www.w3.org/2000/svg">
<path fill-rule="evenodd" clip-rule="evenodd" d="M6.99995 3.25C7.30489 3.25 7.57947 3.43463 7.69452 3.71703L10.4445 10.467C10.6008 10.8506 10.4165 11.2883 10.0329 11.4446C9.64933 11.6009 9.21167 11.4166 9.05538 11.033L8.4227 9.48002C8.36725 9.49309 8.30943 9.5 8.25 9.5H5.56907L4.94452 11.033C4.78824 11.4166 4.35058 11.6009 3.96698 11.4446C3.58338 11.2883 3.3991 10.8506 3.55538 10.467L6.30538 3.71703C6.42044 3.43463 6.69502 3.25 6.99995 3.25ZM7.81973 8L6.99995 5.98782L6.18018 8H7.81973Z" fill="#4A4A4A"/>
<path d="M4.25 12.5C3.83579 12.5 3.5 12.8358 3.5 13.25C3.5 13.6642 3.83579 14 4.25 14H15.75C16.1642 14 16.5 13.6642 16.5 13.25C16.5 12.8358 16.1642 12.5 15.75 12.5H4.25Z" fill="#4A4A4A"/>
<path d="M4.25 15C3.83579 15 3.5 15.3358 3.5 15.75C3.5 16.1642 3.83579 16.5 4.25 16.5H11.25C11.6642 16.5 12 16.1642 12 15.75C12 15.3358 11.6642 15 11.25 15H4.25Z" fill="#4A4A4A"/>
<path fill-rule="evenodd" clip-rule="evenodd" d="M15.0664 5.94093C14.6105 5.66125 14.0741 5.5 13.5 5.5C11.8431 5.5 10.5 6.84315 10.5 8.5C10.5 10.1569 11.8431 11.5 13.5 11.5C14.0741 11.5 14.6105 11.3387 15.0664 11.0591C15.1842 11.3191 15.446 11.5 15.75 11.5C16.1642 11.5 16.5 11.1642 16.5 10.75V6.25C16.5 5.83579 16.1642 5.5 15.75 5.5C15.446 5.5 15.1842 5.6809 15.0664 5.94093ZM13.5 10C14.3284 10 15 9.32843 15 8.5C15 7.67157 14.3284 7 13.5 7C12.6716 7 12 7.67157 12 8.5C12 9.32843 12.6716 10 13.5 10Z" fill="#4A4A4A"/>
</svg>

<svg viewBox="0 0 20 20" xmlns="http://www.w3.org/2000/svg"><path fill-rule="evenodd" d="M7 3.25a.75.75 0 0 1 .695.467l2.75 6.75a.75.75 0 0 1-1.39.566l-.632-1.553a.752.752 0 0 1-.173.02h-2.68l-.625 1.533a.75.75 0 1 1-1.39-.566l2.75-6.75a.75.75 0 0 1 .695-.467Zm.82 4.75-.82-2.012-.82 2.012h1.64Z" fill="#5C5F62"/><path d="M4.25 12.5a.75.75 0 0 0 0 1.5h11.5a.75.75 0 0 0 0-1.5h-11.5Z" fill="#5C5F62"/><path d="M4.25 15a.75.75 0 0 0 0 1.5h7a.75.75 0 0 0 0-1.5h-7Z" fill="#5C5F62"/><path fill-rule="evenodd" d="M15.066 5.94a3 3 0 1 0 0 5.118.75.75 0 0 0 1.434-.308v-4.5a.75.75 0 0 0-1.434-.31Zm-1.566 4.06a1.5 1.5 0 1 0 0-3 1.5 1.5 0 0 0 0 3Z" fill="#5C5F62"/></svg>
